!! 00000] TT[00
!! NN
!!!OTL: San lengzi biandan jiandizi tong
!!!ARE: Asia, China, Shanxi, Hequ
!! Ethnic Group: Han
!! I, 314
!!!SCT: C0082
!!!YEM: Copyright 1995, estate of Helmut Schaffrath.
**kern
*ICvox
*Ivox
*M2/4
*k[f#]
*G:
{8ee
4dd
16b
16gg
=1
16b
16a
16g
16e
8d
16d
16d}
=2
{8.g
16b
8a
16g
16e
=3
2dd}
=4
{8ee
4dd
16ee
16gg
=5
16b
16a
16g
16e
8d
16d
16d}
=6
{8.g
16b
8a
16g
16e
=7
2d}
==
!!!AGN: Shange, Shanqu. Changgong suku
!! 
!!!ONB: ESAC (Essen Associative Code) Database: CHINA
!!!AMT: simple duple
!!!AIN: vox
!!!EED: Helmut Schaffrath
!!!EEV: 1.0
*-
